X: 11041
Q: "Larghetto"
M: 2/4
L: 1/16
K: F
e2 c2 B2 d2 | c4 z4 | G4 {A/}(GF) (GB) |
{B}A4 z4 | d4 =B2 G2 | c4 z2 A2 | G3 c (ed) (c=B) |
c4 z4 | A4 (c_B) (AG) | c2 A2 z4 & x4 z2 f2 |
e2 c2 B2 d2 | c4 z4 | G4 (GF) (GB) |



